Newaita-dark/.LP/16/media-eject.svg

<?xml version="1.0" encoding="UTF-8"?>
<svg xmlns="http://www.w3.org/2000/svg" xmlns:xlink="http://www.w3.org/1999/xlink" width="16pt" height="16pt" viewBox="0 0 16 16" version="1.1">
<g id="surface1">
<path style=" stroke:none;fill-rule:nonzero;fill:rgb(25.882354%,25.882354%,25.882354%);fill-opacity:1;" d="M 0.660156 8.0625 C 0.660156 12.09375 3.90625 15.339844 7.9375 15.339844 C 11.96875 15.339844 15.214844 12.09375 15.214844 8.0625 C 15.214844 4.03125 11.96875 0.785156 7.9375 0.785156 C 3.90625 0.785156 0.660156 4.03125 0.660156 8.0625 Z M 1.984375 8.0625 C 1.984375 4.765625 4.640625 2.109375 7.9375 2.109375 C 11.238281 2.109375 13.890625 4.765625 13.890625 8.0625 C 13.890625 11.363281 11.238281 14.015625 7.9375 14.015625 C 4.640625 14.015625 1.984375 11.363281 1.984375 8.0625 Z M 1.984375 8.0625 "/>
<path style=" stroke:none;fill-rule:evenodd;fill:rgb(25.882354%,64.705884%,96.078432%);fill-opacity:1;" d="M 11.246094 8.726562 C 11.238281 9.082031 10.941406 9.371094 10.585938 9.371094 L 5.292969 9.371094 C 4.738281 9.371094 4.429688 8.726562 4.777344 8.292969 L 7.421875 4.988281 C 7.6875 4.65625 8.191406 4.65625 8.453125 4.988281 L 11.101562 8.292969 C 11.199219 8.417969 11.25 8.570312 11.246094 8.726562 Z M 11.246094 8.726562 "/>
<path style=" stroke:none;fill-rule:nonzero;fill:rgb(25.882354%,64.705884%,96.078432%);fill-opacity:1;" d="M 11.246094 10.660156 L 11.246094 10.757812 C 11.246094 11.097656 10.949219 11.371094 10.585938 11.371094 L 5.292969 11.371094 C 4.925781 11.371094 4.628906 11.097656 4.628906 10.757812 L 4.628906 10.660156 C 4.628906 10.324219 4.925781 10.046875 5.292969 10.046875 L 10.585938 10.046875 C 10.949219 10.046875 11.246094 10.324219 11.246094 10.660156 Z M 11.246094 10.660156 "/>
</g>
</svg>

<svg xmlns="http://www.w3.org/2000/svg" width="16pt" height="16pt" viewBox="0 0 16 16"><path d="M.66 8.063a7.262 7.262 0 0 0 7.277 7.277 7.262 7.262 0 0 0 7.278-7.277A7.262 7.262 0 0 0 7.938.785 7.262 7.262 0 0 0 .66 8.062zm1.324 0a5.942 5.942 0 0 1 5.954-5.954 5.94 5.94 0 0 1 5.953 5.954c0 3.3-2.653 5.953-5.954 5.953a5.94 5.94 0 0 1-5.953-5.954zm0 0" fill="#424242"/><path d="M11.246 8.727a.664.664 0 0 1-.66.644H5.293a.663.663 0 0 1-.516-1.078l2.645-3.305a.658.658 0 0 1 1.031 0l2.649 3.305a.675.675 0 0 1 .144.434zm0 0" fill-rule="evenodd" fill="#42a5f5"/><path d="M11.246 10.66v.098c0 .34-.297.613-.66.613H5.293c-.367 0-.664-.273-.664-.613v-.098c0-.336.297-.613.664-.613h5.293c.363 0 .66.277.66.613zm0 0" fill="#42a5f5"/></svg>
